frontend/public/svg/interface/drawer.svg

<svg width="161" height="115" viewBox="0 0 161 115" fill="none" xmlns="http://www.w3.org/2000/svg">
<g clip-path="url(#clip0)">
<path d="M155.16 38.2775C154.862 37.5275 154.565 36.778 154.262 36.0299C151.239 28.5458 147.813 20.0628 142.131 13.0995C137.421 7.32498 131.337 1.33092 121.93 0.656422C119.817 0.505243 117.516 0.454653 114.895 0.503108C112.817 0.541872 110.739 0.577831 108.661 0.610996C101.547 0.729227 94.1908 0.851489 86.961 1.14287L84.3472 1.2476C72.8901 1.70566 61.0433 2.17967 49.4204 3.10031C37.3867 4.05326 28.4078 9.32003 22.732 18.7539C16.023 29.9063 9.4701 41.2082 3.94651 50.7913C2.90491 52.5802 2.20752 54.5474 1.88996 56.5917C0.299678 67.9077 1.83552 79.21 3.32152 90.1389C3.5871 92.0945 3.85346 94.0489 4.09897 96.0052C4.9184 102.445 8.78573 107.101 15.5932 109.846C16.0052 110.012 16.4259 110.153 16.8469 110.293C17.1656 110.4 17.4849 110.506 17.7977 110.624C25.1759 113.415 33.0202 113.693 39.939 113.938C50.3604 114.308 60.9845 114.484 70.3579 114.64C74.1183 114.704 77.7471 114.762 81.1913 114.834H81.2205C85.4239 114.736 89.418 114.653 93.2645 114.571C102.037 114.387 110.322 114.213 118.454 113.925C123.909 113.798 129.351 113.331 134.749 112.528C139.582 111.746 145.702 110.208 150.176 105.219C154.757 100.115 157.219 95.2874 157.923 90.0329C158.079 88.8622 158.251 87.6928 158.423 86.5235C158.888 83.3577 159.368 80.0854 159.54 76.8363C159.714 73.5446 159.762 70.1973 159.808 66.9605C159.864 63.0271 159.922 58.9594 160.208 54.9848C160.49 51.0548 159.337 47.9459 158.05 45.1717C157.003 42.9175 156.066 40.5582 155.16 38.2775ZM133.875 18.606C134.962 19.9657 135.959 21.3944 136.861 22.883C140.632 29.0336 143.172 35.6268 145.859 42.6076C146.657 44.6801 147.479 46.8158 148.339 48.9446C147.886 48.9788 147.444 49.0132 147.009 49.0474C145.546 49.1611 144.165 49.269 142.798 49.3194C136.424 49.5519 130.048 49.7779 123.674 49.9967C117.093 50.2267 110.513 50.4601 103.933 50.697C98.8263 50.883 97.4005 52.0593 96.309 56.9927C95.9327 58.6964 95.5116 60.4233 95.1042 62.0934L94.9364 62.7814C94.0373 66.4682 91.7656 68.8716 87.9936 70.1289C80.4794 72.6304 73.2736 71.6801 65.9647 67.2261C61.4437 64.4711 58.7418 60.915 57.7047 56.3557C56.759 52.1964 55.3847 50.9727 51.2719 50.9727C51.0128 50.9727 50.7415 50.9772 50.4597 50.9869L13.6701 52.2068L15.8266 48.5203C17.1826 46.2018 18.541 43.8842 19.9017 41.5678C22.9644 36.3496 26.131 30.9529 29.2008 25.6184C33.5901 17.9948 40.4522 13.5532 49.5987 12.42C54.1668 11.8553 58.2857 11.3778 62.4346 11.2569C70.0515 11.0334 77.7996 10.8584 85.2917 10.6885C95.7746 10.4507 106.615 10.2059 117.274 9.82532C123.754 9.5992 128.725 12.2189 133.875 18.606ZM51.3155 66.7777C52.5899 70.0462 54.9468 72.7823 57.9945 74.5305C68.0875 80.2702 78.4642 82.0572 88.8454 79.8367C97.8054 77.9204 104.121 70.7026 105.737 60.528C105.794 60.1688 105.834 59.8072 105.885 59.3375C105.895 59.2413 105.906 59.1391 105.919 59.0312C119.972 58.1099 134.333 57.8228 148.228 57.545L149.602 57.518C149.605 57.5302 149.608 57.5431 149.612 57.5561C149.691 57.7652 149.741 57.984 149.761 58.2063V59.035C149.768 68.5118 149.776 78.31 148.329 87.8699C147.708 92.2541 145.757 96.3443 142.74 99.5921C140.076 102.468 136.187 104.05 130.849 104.431C121.189 105.12 109.967 105.862 99.0349 105.958C79.7111 106.129 59.9245 106.037 40.2218 105.683C34.401 105.579 27.5404 105.155 20.7886 102.813C15.335 100.92 12.8433 97.7734 12.7092 92.6139C12.6528 90.458 12.4927 88.2762 12.3372 86.1668C12.2439 84.8909 12.1504 83.6142 12.0785 82.3382C11.7255 76.0714 11.399 69.9531 11.1068 64.1499C11.0628 63.2893 11.0736 62.4326 11.0859 61.5243C11.0859 61.3111 11.091 61.0953 11.0936 60.8782L48.6391 59.5281C48.8982 60.2387 49.1452 60.9292 49.3874 61.6063C50.0346 63.4037 50.6412 65.0992 51.3155 66.7771V66.7777Z" fill="black"/>
</g>
<defs>
<clipPath id="clip0">
<rect width="160" height="115" fill="white" transform="translate(0.777344)"/>
</clipPath>
</defs>
</svg>

<svg xmlns="http://www.w3.org/2000/svg" width="161" height="115" fill="none" viewBox="0 0 161 115"><g clip-path="url(#a)"><path fill="#000" d="M155.16 38.278q-.445-1.126-.898-2.248c-3.023-7.484-6.449-15.967-12.131-22.93-4.71-5.775-10.794-11.77-20.201-12.444-2.113-.15-4.414-.201-7.035-.153q-3.117.059-6.234.108c-7.114.118-14.47.24-21.7.532l-2.614.105C72.89 1.706 61.043 2.18 49.42 3.1c-12.033.953-21.012 6.22-26.688 15.654C16.023 29.906 9.47 41.208 3.947 50.79a16.6 16.6 0 0 0-2.057 5.8C.3 67.909 1.836 79.21 3.322 90.14c.265 1.956.531 3.91.777 5.866.82 6.44 4.687 11.096 11.494 13.841.412.166.833.307 1.254.447.319.107.638.213.95.331 7.379 2.791 15.223 3.069 22.142 3.314 10.421.37 21.045.546 30.419.702 3.76.064 7.39.122 10.833.194h.03c4.203-.098 8.197-.181 12.043-.263 8.773-.184 17.058-.358 25.19-.646a132 132 0 0 0 16.295-1.397c4.833-.782 10.953-2.32 15.427-7.309 4.581-5.104 7.043-9.932 7.747-15.186.156-1.17.328-2.34.5-3.51.465-3.165.945-6.438 1.117-9.687.174-3.291.222-6.639.268-9.876.056-3.933.114-8 .4-11.975.282-3.93-.871-7.04-2.158-9.813-1.047-2.254-1.984-4.614-2.89-6.894m-21.285-19.672a40 40 0 0 1 2.986 4.277c3.771 6.15 6.311 12.744 8.998 19.725.798 2.072 1.62 4.208 2.48 6.337l-1.33.102c-1.463.114-2.844.222-4.211.272q-9.562.35-19.124.678-9.871.345-19.741.7c-5.107.186-6.533 1.362-7.624 6.296-.376 1.703-.797 3.43-1.205 5.1l-.168.688c-.899 3.687-3.17 6.09-6.942 7.348-7.515 2.501-14.72 1.551-22.03-2.903-4.52-2.755-7.222-6.311-8.26-10.87-.945-4.16-2.32-5.383-6.432-5.383q-.39 0-.812.014l-36.79 1.22 2.157-3.687q2.034-3.477 4.075-6.952a2184 2184 0 0 0 9.299-15.95c4.39-7.623 11.251-12.065 20.398-13.198 4.568-.565 8.687-1.042 12.836-1.163 7.617-.224 15.365-.399 22.857-.569 10.483-.237 21.323-.482 31.982-.863 6.48-.226 11.451 2.394 16.601 8.781m-82.56 48.172a15.38 15.38 0 0 0 6.68 7.752c10.093 5.74 20.47 7.527 30.85 5.307 8.96-1.917 15.276-9.134 16.892-19.309.057-.36.097-.72.148-1.19q.015-.145.034-.307c14.053-.921 28.414-1.208 42.309-1.486l1.374-.027.01.038q.119.316.149.65v.829c.007 9.477.015 19.275-1.432 28.835a21.7 21.7 0 0 1-5.589 11.722c-2.664 2.876-6.553 4.458-11.891 4.839-9.66.689-20.882 1.431-31.814 1.527-19.324.171-39.11.079-58.813-.275-5.821-.104-12.682-.528-19.433-2.87-5.454-1.893-7.946-5.04-8.08-10.2-.056-2.155-.216-4.337-.372-6.446-.093-1.276-.187-2.553-.258-3.829-.354-6.267-.68-12.385-.972-18.188-.044-.86-.033-1.717-.021-2.626q.002-.32.008-.646l37.545-1.35c.26.71.506 1.401.748 2.078.648 1.798 1.254 3.493 1.928 5.171"/></g><defs><clipPath id="a"><path fill="#fff" d="M.777 0h160v115h-160z"/></clipPath></defs></svg>
